icon-themes/colibre_svg/cmd/ar/sc_alphaliststyle.svg

<svg viewBox="0 0 16 16" xmlns="http://www.w3.org/2000/svg"><path d="m8.5 2c.277 0 .5.223.5.5s-.223.5-.5.5h-8c-.277 0-.5-.223-.5-.5s.223-.5.5-.5zm0 3c.277 0 .5.223.5.5s-.223.5-.5.5h-4.400391c-.277 0-.5-.223-.5-.5s.223-.5.5-.5zm0 5c.277 0 .5.223.5.5s-.223.5-.5.5h-8c-.277 0-.5-.223-.5-.5s.223-.5.5-.5zm0 3c.277 0 .5.223.5.5s-.223.5-.5.5h-4.400391c-.277 0-.5-.223-.5-.5s.223-.5.5-.5z" fill="#808080"/><path d="m11.957031 1-1.957031 6h.830078c.088995 0 .163323-.0278146.222656-.0820312.06203-.0572287.103427-.1173285.125-.1835938l.335938-1.1757812h1.976562l.339844 1.1796874c.02697.0753014.07032.1382485.126953.1894532.056634.0481926.132172.0722656.226563.0722656h.816406l-1.957031-6zm.539063 1.09375c.035058.1475903.070409.2836502.105468.4101562.035062.123494.069203.2327985.101563.3261719l.544922 1.8964844h-1.496094l.544922-1.8925781c.029667-.0933735.062596-.2035721.097656-.3300782.035062-.1265059.069203-.2625659.101563-.4101562zm-1.511719 6.90625v6h2.050781c.313236 0 .588911-.04351.830078-.130859.243936-.090362.44778-.214468.611328-.371094.166321-.159639.292975-.347585.378907-.564453.085932-.216867.128906-.45296.128906-.708985 0-.695783-.355955-1.137472-1.068359-1.324218.163548-.063253.303497-.140107.419922-.230469.119195-.093373.216171-.195195.291015-.306641.074847-.111446.129982-.23181.166016-.361328.036033-.129518.054687-.263789.054687-.402344 0-.243975-.038437-.464372-.113281-.6601559-.072073-.1987953-.18688-.3673053-.347656-.5058593-.158004-.1385547-.362983-.2450119-.615235-.3203126-.252252-.0753013-.557293-.1132812-.912109-.1132812zm1.09375.9121094h.78125c.310464 0 .537497.0629476.681641.1894526.144144.123495.216796.339256.216796.646485 0 .295181-.083679.507201-.25.636719-.166319.126506-.403245.191406-.710937.191406h-.71875zm0 2.4804686h.931641c.16632 0 .306269.019434.419922.058594.116424.036144.209996.088926.279296.158203.072071.069277.121851.154509.152344.253906.033267.099398.050781.210491.050781.333985 0 .114458-.013295.225551-.041015.333984-.02772.105422-.077185.199925-.146485.28125-.066528.081325-.157012.145166-.273437.193359-.116424.048194-.262864.072266-.4375.072266h-.935547z" fill="#4d82b8"/></svg>

<svg viewBox="0 0 16 16" xmlns="http://www.w3.org/2000/svg">
  <path
     style="fill:#808080"
     d="M 8.5,2 C 8.777,2 9,2.223 9,2.5 9,2.777 8.777,3 8.5,3 h -8 C 0.223,3 0,2.777 0,2.5 0,2.223 0.223,2 0.5,2 Z m 0,3 C 8.777,5 9,5.223 9,5.5 9,5.777 8.777,6 8.5,6 H 4.099609 c -0.277,0 -0.5,-0.223 -0.5,-0.5 0,-0.277 0.223,-0.5 0.5,-0.5 z m 0,5 C 8.777,10 9,10.223 9,10.5 9,10.777 8.777,11 8.5,11 h -8 C 0.223,11 0,10.777 0,10.5 0,10.223 0.223,10 0.5,10 Z m 0,3 C 8.777,13 9,13.223 9,13.5 9,13.777 8.777,14 8.5,14 H 4.099609 c -0.277,0 -0.5,-0.223 -0.5,-0.5 0,-0.277 0.223,-0.5 0.5,-0.5 z"
     id="rect2" />
  <path
     style="fill:#4d82b8"
     d="M 11.957031 1 L 10 7 L 10.830078 7 C 10.919073 7 10.993401 6.9721854 11.052734 6.9179688 C 11.114764 6.8607401 11.156161 6.8006403 11.177734 6.734375 L 11.513672 5.5585938 L 13.490234 5.5585938 L 13.830078 6.7382812 C 13.857048 6.8135826 13.900398 6.8765297 13.957031 6.9277344 C 14.013665 6.975927 14.089203 7 14.183594 7 L 15 7 L 13.042969 1 L 11.957031 1 z M 12.496094 2.09375 C 12.531152 2.2413403 12.566503 2.3774002 12.601562 2.5039062 C 12.636624 2.6274002 12.670765 2.7367047 12.703125 2.8300781 L 13.248047 4.7265625 L 11.751953 4.7265625 L 12.296875 2.8339844 C 12.326542 2.7406109 12.359471 2.6304123 12.394531 2.5039062 C 12.429593 2.3774003 12.463734 2.2413403 12.496094 2.09375 z M 10.984375 9 L 10.984375 15 L 13.035156 15 C 13.348392 15 13.624067 14.95649 13.865234 14.869141 C 14.10917 14.778779 14.313014 14.654673 14.476562 14.498047 C 14.642883 14.338408 14.769537 14.150462 14.855469 13.933594 C 14.941401 13.716727 14.984375 13.480634 14.984375 13.224609 C 14.984375 12.528826 14.62842 12.087137 13.916016 11.900391 C 14.079564 11.837138 14.219513 11.760284 14.335938 11.669922 C 14.455133 11.576549 14.552109 11.474727 14.626953 11.363281 C 14.7018 11.251835 14.756935 11.131471 14.792969 11.001953 C 14.829002 10.872435 14.847656 10.738164 14.847656 10.599609 C 14.847656 10.355634 14.809219 10.135237 14.734375 9.9394531 C 14.662302 9.7406578 14.547495 9.5721478 14.386719 9.4335938 C 14.228715 9.2950391 14.023736 9.1885819 13.771484 9.1132812 C 13.519232 9.0379799 13.214191 9 12.859375 9 L 10.984375 9 z M 12.078125 9.9121094 L 12.859375 9.9121094 C 13.169839 9.9121094 13.396872 9.975057 13.541016 10.101562 C 13.68516 10.225057 13.757812 10.440818 13.757812 10.748047 C 13.757812 11.043228 13.674133 11.255248 13.507812 11.384766 C 13.341493 11.511272 13.104567 11.576172 12.796875 11.576172 L 12.078125 11.576172 L 12.078125 9.9121094 z M 12.078125 12.392578 L 13.009766 12.392578 C 13.176086 12.392578 13.316035 12.412012 13.429688 12.451172 C 13.546112 12.487316 13.639684 12.540098 13.708984 12.609375 C 13.781055 12.678652 13.830835 12.763884 13.861328 12.863281 C 13.894595 12.962679 13.912109 13.073772 13.912109 13.197266 C 13.912109 13.311724 13.898814 13.422817 13.871094 13.53125 C 13.843374 13.636672 13.793909 13.731175 13.724609 13.8125 C 13.658081 13.893825 13.567597 13.957666 13.451172 14.005859 C 13.334748 14.054053 13.188308 14.078125 13.013672 14.078125 L 12.078125 14.078125 L 12.078125 12.392578 z "
     id="path14" />
</svg>
